images/step1.svg

<svg width="32" height="32" viewBox="0 0 32 32" fill="none" xmlns="http://www.w3.org/2000/svg">
<path d="M10.3798 15.9999C10.3798 14.6812 10.4513 13.3903 10.5889 12.158H4.24214C3.84364 13.3822 3.63623 14.6751 3.63623 15.9999C3.63623 17.013 3.75775 18.0073 3.99287 18.9666H10.5029C10.4216 18.0032 10.3798 17.0097 10.3798 15.9999ZM10.6584 20.415H4.44458C5.05676 22.0197 6.00589 23.4915 7.25638 24.7424C8.90585 26.3924 10.9398 27.5178 13.1558 28.0366C12.6746 27.3691 12.2375 26.5222 11.8584 25.508C11.311 24.0433 10.9051 22.3062 10.6584 20.415ZM21.206 10.7096H27.1739C26.5742 9.44383 25.7548 8.2772 24.7353 7.25739C23.0858 5.60734 21.0519 4.48199 18.8359 3.96318C19.3172 4.63065 19.7542 5.47752 20.1333 6.49182C20.5951 7.72744 20.9561 9.1572 21.206 10.7096ZM10.7857 10.7096C11.0356 9.1572 11.3966 7.72744 11.8584 6.49182C12.2375 5.47757 12.6745 4.63065 13.1558 3.96318C10.9398 4.48199 8.9059 5.60734 7.25643 7.25739C6.23691 8.2772 5.41755 9.44383 4.81783 10.7096H10.7857ZM21.3333 20.415C21.0866 22.3062 20.6807 24.0433 20.1332 25.508C19.7541 26.5222 19.3171 27.3691 18.8359 28.0366C21.0519 27.5178 23.0858 26.3924 24.7352 24.7424C25.9857 23.4915 26.9349 22.0197 27.547 20.415H21.3333ZM27.7495 12.158H21.4027C21.5404 13.3904 21.6118 14.6812 21.6118 15.9999C21.6118 17.0096 21.57 18.0032 21.4887 18.9666H27.9987C28.2339 18.0073 28.3554 17.013 28.3554 15.9999C28.3554 14.6751 28.148 13.3822 27.7495 12.158ZM19.873 20.415H12.1187C12.3523 22.1217 12.7226 23.6833 13.2151 25.0008C14.0022 27.1064 15.0417 28.3635 15.9959 28.3635C16.9501 28.3635 17.9896 27.1064 18.7766 25.0008C19.269 23.6833 19.6393 22.1217 19.873 20.415ZM12.2527 10.7096H19.739C19.507 9.34341 19.1835 8.08776 18.7766 6.99891C17.9895 4.89333 16.95 3.63623 15.9958 3.63623C15.0416 3.63623 14.0022 4.89333 13.2151 6.99891C12.8081 8.08776 12.4847 9.34341 12.2527 10.7096ZM19.9457 12.158H12.046C11.9028 13.3834 11.8282 14.6753 11.8282 15.9999C11.8282 17.013 11.872 18.0068 11.9564 18.9666H20.0352C20.1197 18.0068 20.1635 17.013 20.1635 15.9999C20.1635 14.6753 20.0889 13.3834 19.9457 12.158Z" fill="#2161AB"/>
</svg>

<svg width="32" height="32" fill="none" xmlns="http://www.w3.org/2000/svg"><path d="M10.38 16c0-1.319.071-2.61.209-3.842H4.242A12.396 12.396 0 003.636 16c0 1.013.122 2.007.357 2.967h6.51A35.353 35.353 0 0110.38 16zm.278 4.415H4.445a12.33 12.33 0 002.811 4.327 12.278 12.278 0 005.9 3.295c-.481-.668-.918-1.515-1.298-2.529-.547-1.465-.953-3.202-1.2-5.093zm10.548-9.705h5.968a12.374 12.374 0 00-2.439-3.453 12.277 12.277 0 00-5.9-3.294c.482.668.92 1.515 1.298 2.529.462 1.235.823 2.665 1.073 4.218zm-10.42 0c.25-1.553.61-2.983 1.072-4.218.38-1.014.816-1.861 1.298-2.529a12.277 12.277 0 00-5.9 3.294 12.374 12.374 0 00-2.438 3.453h5.968zm10.547 9.705c-.246 1.891-.652 3.628-1.2 5.093-.379 1.014-.816 1.861-1.297 2.529a12.277 12.277 0 005.9-3.295 12.32 12.32 0 002.811-4.327h-6.214zm6.417-8.257h-6.347a35.496 35.496 0 01.086 6.809h6.51c.235-.96.356-1.954.356-2.967 0-1.325-.207-2.618-.605-3.842zm-7.877 8.257h-7.754c.233 1.707.604 3.268 1.096 4.586.787 2.105 1.827 3.362 2.78 3.362.955 0 1.995-1.257 2.782-3.362.492-1.318.862-2.88 1.096-4.586zm-7.62-9.705h7.486c-.232-1.367-.556-2.622-.962-3.711-.788-2.106-1.827-3.363-2.781-3.363-.954 0-1.994 1.257-2.78 3.363-.408 1.089-.731 2.344-.963 3.71zm7.693 1.448h-7.9A33.237 33.237 0 0011.828 16c0 1.013.044 2.007.128 2.967h8.08c.084-.96.127-1.954.127-2.967 0-1.325-.074-2.617-.217-3.842z" fill="#2161AB"/></svg>
